X:1
T:Title
%%score 1 2 3
L:1/8
M:2/2
K:C
V:1 treble nm="Part_1"
V:2 treble-8 nm="Part_2"
V:3 treble-8 nm="Part_3"
V:1
 d8 | B8 | c4 d4- | d4 B4 | c6 B2 | A2 G2 _B4- | B4 A4 | _B4 G4- | G4 F4 | G8 | z8 | c8 | c4 c4- | %13
 c4 A4 | c6 d2 | B8 | z4 A4 | G4 A4- | A4 ^G4 | A8 | z4 A4 | B4 c4 | d8 | B4 c4- | c4 A4 | B4 G4- | %26
 G4 F4 | G8 | %28
V:2
 G8 | d4 g4 | f4 d4 | g8 | e4 f4- | f4 d4 | f8 | g4 d4- | d4 c4 | d8 | g8 | e8 | e4 e4 | f8 | %14
 z4 f4 | g8 | e8- | e4 c4 | d8 | e4 f4- | f4 e4 | g4 f4 | e8 | g4 f4- | f4 d4 | e4 d4- | d4 c4 | %27
 d8 | %28
V:3
 d8 | G8 | A4 B4 | G8 | A4 F4- | F4 G4 | d8 | G8 | A8 | G8- | G8 | z4 A4 | A8 | F8 | A8 | G8 | %16
 c8- | c4 A4 | B8 | A8- | A8 | z4 A4 | B4 G4- | G4 A4 | F8 | G8 | A8 | G8 | %28

